X: 30487
T: Old Wooden Bridge
R: reel
M: 4/4
K: Dmajor
|:D2 DE FA A2|BAFB AFED|E2 BE dE BE|BAFB AFEF|
D2 DE FA A2|BAFB AFED|dfef d3B|1 AFEG FDEF:|2 AFEG FDD2||
|:f2fa g2 fg|abag fedf|agfg agfe|defa gee2|
f2fa g2 fg|abag fedc|dfef d3 B|1 AFEG FDD2:|2 AFEG FDEF||

